www/static/img/overview/entity-avatar.svg

<svg fill="none" height="44" viewBox="0 0 48 44" width="48" xmlns="http://www.w3.org/2000/svg"><circle cx="24" cy="22" fill="#005a7a" r="22"/><path d="m18.8821 16.1h-1.6915l-4.8875 11.9h1.4195l1.343-3.315h5.8905l1.3515 3.315h1.462zm-.867 1.3515 2.4225 5.9415h-4.845zm7.7849-1.3515v11.9h4.828c2.635 0 4.335-.9945 4.335-3.3065 0-1.479-.8585-2.431-2.0485-2.822 1.071-.374 1.7935-1.292 1.7935-2.635 0-2.261-1.802-3.1365-4.301-3.1365zm4.7685 6.5025c1.785 0 2.958.4675 2.958 2.0485 0 1.598-1.173 2.0655-2.958 2.0655h-3.4v-4.114zm-.2125-5.219c1.6405 0 2.9155.3995 2.9155 1.955 0 1.598-1.2665 1.989-2.907 1.989h-3.196v-3.944z" fill="#fff"/></svg>

<svg width="48" height="44" viewBox="0 0 48 44" fill="none" xmlns="http://www.w3.org/2000/svg">
<circle cx="24" cy="22" r="22" fill="#005A7A"/>
<path d="M18.8821 16.1H17.1906L12.3031 28H13.7226L15.0656 24.685H20.9561L22.3076 28H23.7696L18.8821 16.1ZM18.0151 17.4515L20.4376 23.393H15.5926L18.0151 17.4515ZM25.8 16.1V28H30.628C33.263 28 34.963 27.0055 34.963 24.6935C34.963 23.2145 34.1045 22.2625 32.9145 21.8715C33.9855 21.4975 34.708 20.5795 34.708 19.2365C34.708 16.9755 32.906 16.1 30.407 16.1H25.8ZM30.5685 22.6025C32.3535 22.6025 33.5265 23.07 33.5265 24.651C33.5265 26.249 32.3535 26.7165 30.5685 26.7165H27.1685V22.6025H30.5685ZM30.356 17.3835C31.9965 17.3835 33.2715 17.783 33.2715 19.3385C33.2715 20.9365 32.005 21.3275 30.3645 21.3275H27.1685V17.3835H30.356Z" fill="white"/>
</svg>
